<?xml version="1.0" encoding="UTF-8" standalone="no"?><map height="11" infinite="0" nextlayerid="6" nextobjectid="14" orientation="orthogonal" renderorder="right-down" tiledversion="1.11.2" tileheight="16" tilewidth="16" version="1.10" width="11">
 <properties><property name="atlas" value="tileset/start.atlas"/>
  <property name="isBattle" type="bool" value="false"/>
 </properties>
 <tileset firstgid="1" source="Ground.tsx"/>
 <tileset firstgid="121" source="objects.tsx"/>
 <tileset firstgid="175" source="../entities_anims/purple_portal.tsx"/>
 <layer height="11" id="2" name="Ground" width="11">
  <data encoding="csv">
52,52,52,52,52,52,52,52,52,52,52,
52,52,52,52,52,52,52,52,52,52,52,
52,52,52,52,52,52,52,52,52,52,52,
52,52,52,52,52,52,52,52,52,52,52,
52,52,52,52,52,52,52,52,52,52,52,
52,52,52,52,52,52,52,52,52,52,52,
52,52,52,52,52,52,52,52,52,52,52,
52,52,52,52,52,52,52,52,52,52,52,
52,52,52,52,52,52,52,52,52,52,52,
52,52,52,52,52,52,52,52,52,52,52,
52,52,52,52,52,52,52,52,52,52,52
</data>
 </layer>
 <layer height="11" id="1" name="Ground2" width="11">
  <data encoding="csv">
1,2,2,2,2,2,2,2,2,2,3,
41,42,42,42,42,42,42,42,42,42,43,
41,42,42,42,42,42,42,42,42,42,43,
41,42,42,42,42,42,42,42,42,42,43,
41,42,42,42,42,42,42,42,42,42,43,
41,42,42,42,42,42,42,42,42,42,43,
41,42,42,42,42,42,42,42,42,42,43,
41,42,42,42,42,42,42,42,42,42,43,
41,42,42,42,42,42,42,42,42,42,43,
41,42,42,42,42,42,42,42,42,42,43,
81,82,82,82,5,42,4,82,82,82,83
</data>
 </layer>
 <layer height="11" id="4" name="Ground3" width="11">
  <data encoding="csv">
0,0,0,0,0,0,0,0,0,0,0,
0,155,0,155,0,0,0,0,0,0,0,
0,0,0,0,0,0,0,0,0,0,0,
0,0,0,0,0,0,0,0,155,0,0,
0,0,0,155,0,0,0,0,0,0,0,
0,0,0,0,0,0,0,0,0,0,0,
0,0,0,0,0,155,0,0,0,0,0,
0,0,0,0,0,0,0,155,0,0,0,
0,0,155,0,0,0,0,0,0,0,0,
0,0,0,0,0,0,0,0,0,0,0,
0,0,0,0,0,0,0,0,0,0,0
</data>
 </layer>
 <objectgroup id="3" name="Primary_Entities">
  <object height="9.72727" id="5" width="12.9091" x="81.4543" y="36.2727">
   <properties>
    <property name="name" value="explorationPlayer"/>
   </properties>
  </object>
 </objectgroup>
 <objectgroup id="5" name="Portals">
  <object height="3.45455" id="12" width="4.09091" x="85.2424" y="165.121">
   <properties>
    <property name="destMap" value="battle1"/>
    <property name="destPortal_ID" type="int" value="1"/>
    <property name="name" value="greenPortal"/>
    <property name="portal_ID" type="int" value="1"/>
   </properties>
  </object>
 </objectgroup>
</map>