<?xml version="1.0" encoding="UTF-8"?>
<map version="1.10" tiledversion="1.11.2" orientation="orthogonal" renderorder="right-down" width="8" height="8" tilewidth="16" tileheight="16" infinite="0" nextlayerid="2" nextobjectid="1">
 <properties>
  <property name="attack1" value="square_attack"/>
  <property name="baseAttack" value="square_attack"/>
  <property name="hp" type="int" value="10"/>
  <property name="maxMoves" type="int" value="4"/>
  <property name="type" value="enemy"/>
 </properties>
 <tileset firstgid="1" source="enemy1.tsx"/>
 <layer id="1" name="Calque de Tuiles 1" width="8" height="8">
  <data encoding="csv">
0,0,0,0,0,0,0,0,
0,0,0,0,0,0,0,0,
0,0,0,0,0,0,0,0,
40,39,0,0,0,0,0,0,
24,23,0,0,0,0,0,0,
62,63,0,0,0,0,0,0,
55,56,0,0,0,0,0,0,
13,14,0,0,0,0,0,0
</data>
 </layer>
</map>
