<?xml version="1.0" encoding="UTF-8"?>
<map version="1.10" tiledversion="1.11.2" orientation="orthogonal" renderorder="right-down" width="8" height="8" tilewidth="32" tileheight="32" infinite="0" nextlayerid="3" nextobjectid="1">
 <properties>
  <property name="hitboxTolerancePercentage" type="float" value="40"/>
  <property name="hp" type="int" value="100"/>
  <property name="type" value="explorationPlayer"/>
 </properties>
 <tileset firstgid="1" source="explorationPlayer.tsx"/>
 <tileset firstgid="65" source="animWalk_explorationPlayer.tsx"/>
 <tileset firstgid="81" source="ally_real.tsx"/>
 <layer id="1" name="Calque de Tuiles 1" width="8" height="8">
  <data encoding="csv">
0,0,0,0,0,0,0,0,
0,0,0,0,0,0,0,0,
129,130,131,0,0,0,0,0,
111,112,113,114,115,116,0,0,
105,106,107,108,109,110,0,0,
99,100,101,102,103,104,0,0,
0,0,0,0,0,0,0,0,
87,88,89,90,91,92,0,0
</data>
 </layer>
</map>
