<?xml version="1.0" encoding="UTF-8"?>
<map version="1.10" tiledversion="1.11.2" orientation="orthogonal" renderorder="right-down" width="8" height="8" tilewidth="32" tileheight="32" infinite="0" nextlayerid="2" nextobjectid="1">
 <properties>
  <property name="speed" type="float" value="3"/>
  <property name="type" value="projectile"/>
 </properties>
 <tileset firstgid="1" source="projectile.tsx"/>
 <layer id="1" name="Calque de Tuiles 1" width="8" height="8">
  <data encoding="csv">
0,0,0,0,0,0,0,0,
0,0,0,0,0,0,0,0,
0,0,0,0,0,0,0,0,
0,0,0,0,0,0,0,0,
0,0,0,0,0,0,0,0,
0,0,0,0,0,0,0,0,
0,0,0,0,0,0,0,0,
1,0,0,0,0,0,0,0
</data>
 </layer>
</map>
