<?xml version="1.0" encoding="UTF-8"?>
<map version="1.10" tiledversion="1.11.2" orientation="orthogonal" renderorder="right-down" width="33" height="33" tilewidth="16" tileheight="16" infinite="0" nextlayerid="10" nextobjectid="28">
 <properties>
  <property name="battleMap" type="bool" value="true"/>
 </properties>
 <tileset firstgid="1" source="Ground.tsx"/>
 <tileset firstgid="121" source="objects.tsx"/>
 <layer id="2" name="Ground" width="33" height="33">
  <data encoding="csv">
62,62,62,62,62,62,62,62,62,62,62,62,62,62,62,62,62,62,62,62,62,62,62,62,62,62,62,62,62,62,62,62,62,
62,62,62,62,62,62,62,62,62,62,62,62,62,62,62,62,62,62,62,62,62,62,62,62,62,62,62,62,62,62,62,62,62,
62,62,62,62,62,62,62,62,62,62,62,62,62,62,62,62,62,62,62,62,62,62,62,62,62,62,62,62,62,62,62,62,62,
62,62,62,62,62,62,62,62,62,62,62,62,62,62,62,62,62,62,62,62,62,62,62,62,62,62,62,62,62,62,62,62,62,
62,62,62,62,62,62,62,62,62,62,62,62,62,62,62,62,62,62,62,62,62,62,62,62,62,62,62,62,62,62,62,62,62,
62,62,62,62,62,62,62,62,62,62,62,62,62,62,62,62,62,62,62,62,62,62,62,62,62,62,62,62,62,62,62,62,62,
62,62,62,62,62,62,62,62,62,62,62,62,62,62,62,62,62,62,62,62,62,62,62,62,62,62,62,62,62,62,62,62,62,
62,62,62,62,62,62,62,62,62,62,62,62,62,62,62,62,62,62,62,62,62,62,62,62,62,62,62,62,62,62,62,62,62,
62,62,62,62,62,62,62,62,62,62,62,62,62,62,62,62,62,62,62,62,62,62,62,62,62,62,62,62,62,62,62,62,62,
62,62,62,62,62,62,62,62,62,62,62,62,62,62,62,62,62,62,62,62,62,62,62,62,62,62,62,62,62,62,62,62,62,
62,62,62,62,62,62,62,62,62,62,62,62,62,62,62,62,62,62,62,62,62,62,62,62,62,62,62,62,62,62,62,62,62,
62,62,62,62,62,62,62,62,62,62,62,62,62,62,62,62,62,62,62,62,62,62,62,62,62,62,62,62,62,62,62,62,62,
62,62,62,62,62,62,62,62,62,62,62,62,62,62,62,62,62,62,62,62,62,62,62,62,62,62,62,62,62,62,62,62,62,
62,62,62,62,62,62,62,62,62,62,62,62,62,62,62,62,62,62,62,62,62,62,62,62,62,62,62,62,62,62,62,62,62,
62,62,62,62,62,62,62,62,62,62,62,62,62,62,62,62,62,62,62,62,62,62,62,62,62,62,62,62,62,62,62,62,62,
62,62,62,62,62,62,62,62,62,62,62,62,62,62,62,62,62,62,62,62,62,62,62,62,62,62,62,62,62,62,62,62,62,
62,62,62,62,62,62,62,62,62,62,62,62,62,62,62,62,62,62,62,62,62,62,62,62,62,62,62,62,62,62,62,62,62,
62,62,62,62,62,62,62,62,62,62,62,62,62,62,62,62,62,62,62,62,62,62,62,62,62,62,62,62,62,62,62,62,62,
62,62,62,62,62,62,62,62,62,62,62,62,62,62,62,62,62,62,62,62,62,62,62,62,62,62,62,62,62,62,62,62,62,
62,62,62,62,62,62,62,62,62,62,62,62,62,62,62,62,62,62,62,62,62,62,62,62,62,62,62,62,62,62,62,62,62,
62,62,62,62,62,62,62,62,62,62,62,62,62,62,62,62,62,62,62,62,62,62,62,62,62,62,62,62,62,62,62,62,62,
62,62,62,62,62,62,62,62,62,62,62,62,62,62,62,62,62,62,62,62,62,62,62,62,62,62,62,62,62,62,62,62,62,
62,62,62,62,62,62,62,62,62,62,62,62,62,62,62,62,62,62,62,62,62,62,62,62,62,62,62,62,62,62,62,62,62,
62,62,62,62,62,62,62,62,62,62,62,62,62,62,62,62,62,62,62,62,62,62,62,62,62,62,62,62,62,62,62,62,62,
62,62,62,62,62,62,62,62,62,62,62,62,62,62,62,62,62,62,62,62,62,62,62,62,62,62,62,62,62,62,62,62,62,
62,62,62,62,62,62,62,62,62,62,62,62,62,62,62,62,62,62,62,62,62,62,62,62,62,62,62,62,62,62,62,62,62,
62,62,62,62,62,62,62,62,62,62,62,62,62,62,62,62,62,62,62,62,62,62,62,62,62,62,62,62,62,62,62,62,62,
62,62,62,62,62,62,62,62,62,62,62,62,62,62,62,62,62,62,62,62,62,62,62,62,62,62,62,62,62,62,62,62,62,
62,62,62,62,62,62,62,62,62,62,62,62,62,62,62,62,62,62,62,62,62,62,62,62,62,62,62,62,62,62,62,62,62,
62,62,62,62,62,62,62,62,62,62,62,62,62,62,62,62,62,62,62,62,62,62,62,62,62,62,62,62,62,62,62,62,62,
62,62,62,62,62,62,62,62,62,62,62,62,62,62,62,62,62,62,62,62,62,62,62,62,62,62,62,62,62,62,62,62,62,
62,62,62,62,62,62,62,62,62,62,62,62,62,62,62,62,62,62,62,62,62,62,62,62,62,62,62,62,62,62,62,62,62,
62,62,62,62,62,62,62,62,62,62,62,62,62,62,62,62,62,62,62,62,62,62,62,62,62,62,62,62,62,62,62,62,62
</data>
 </layer>
 <layer id="8" name="Ground2" width="33" height="33">
  <data encoding="csv">
0,0,0,76,77,77,77,77,77,77,77,77,77,77,77,77,77,77,77,77,77,77,77,77,77,77,77,77,77,77,77,77,78,
0,0,0,76,77,77,77,77,77,77,77,77,77,77,77,77,77,77,77,77,77,77,77,77,77,77,77,77,77,77,77,77,78,
0,0,0,76,77,77,77,77,77,77,77,77,77,77,77,77,77,77,77,77,77,77,77,77,77,77,77,77,77,77,77,77,78,
0,0,0,76,77,77,77,77,77,77,77,77,77,77,77,77,77,77,77,77,77,77,77,77,77,77,77,77,77,77,77,77,78,
0,0,0,76,77,77,77,77,77,77,77,77,77,77,77,77,77,77,77,77,77,77,77,77,77,77,77,77,77,77,77,77,78,
0,0,0,76,77,77,77,77,77,77,77,77,77,77,77,77,77,77,77,77,77,77,77,77,77,77,77,77,77,77,77,77,78,
0,0,0,76,77,77,77,77,77,77,77,77,77,77,77,77,77,77,77,77,77,77,77,77,77,77,77,77,77,77,77,77,78,
0,0,0,76,77,77,77,77,77,77,77,77,77,77,77,77,77,77,77,77,77,77,77,77,77,77,77,77,77,77,77,77,78,
0,0,0,76,77,77,77,77,77,77,77,77,77,77,77,77,77,77,77,77,77,77,77,77,77,77,77,77,77,77,77,77,78,
0,0,0,76,77,77,77,77,77,77,77,77,77,77,77,77,77,77,77,77,77,77,77,77,77,77,77,77,77,77,77,77,78,
0,0,0,76,77,77,77,77,77,77,77,77,77,77,77,77,77,77,77,77,77,77,77,77,77,77,77,77,77,77,77,77,78,
0,0,0,76,77,77,77,77,77,77,77,77,77,77,77,77,77,77,77,77,77,77,77,77,77,77,77,77,77,77,77,77,78,
0,0,0,116,117,117,117,117,117,117,117,117,40,77,77,77,77,77,39,117,40,77,39,117,117,117,117,117,117,117,117,117,118,
0,0,0,0,0,0,0,0,0,0,0,0,76,77,77,77,77,77,78,0,76,77,78,36,37,37,37,37,37,37,37,37,38,
0,0,0,0,0,0,0,0,0,0,0,0,76,77,77,77,77,77,78,36,80,77,79,80,77,77,77,77,77,77,77,77,79,
0,0,0,0,0,0,0,0,0,0,0,0,76,77,77,77,77,77,78,76,77,77,77,77,77,39,117,117,117,117,117,117,117,
0,0,0,0,0,0,0,0,0,0,0,0,76,77,77,77,77,77,79,119,117,40,77,39,117,118,0,0,0,0,0,0,0,
37,37,37,37,37,37,37,37,37,37,37,37,80,77,77,77,77,77,77,79,37,119,117,118,0,0,0,0,0,0,0,0,0,
77,77,77,77,77,77,77,77,77,77,77,77,77,77,77,77,77,77,77,77,77,78,0,0,0,0,0,0,0,0,0,0,0,
77,77,77,77,77,77,77,77,77,77,77,77,77,77,77,77,77,77,77,77,39,118,0,0,0,0,0,0,0,0,0,0,0,
77,77,77,77,77,77,77,77,77,77,77,77,39,117,117,117,117,40,77,77,78,0,0,0,0,0,0,0,0,0,0,0,0,
77,77,77,77,77,77,77,77,77,77,77,77,78,36,37,37,38,76,77,77,78,0,0,0,0,0,0,0,0,0,0,0,0,
77,77,77,77,77,77,77,77,77,77,77,77,78,76,77,77,78,76,77,77,78,0,0,0,0,0,0,0,0,0,0,0,0,
77,77,77,77,77,77,77,77,77,77,77,77,78,116,40,77,78,76,77,77,78,0,0,0,0,0,0,0,0,0,0,0,0,
77,77,77,77,77,77,77,77,77,77,77,77,79,37,80,77,78,116,40,77,78,0,0,0,0,0,0,0,0,0,0,0,0,
77,77,77,77,77,77,77,77,77,77,77,77,77,77,77,77,78,0,76,77,78,0,0,0,0,0,0,0,0,0,0,0,0,
77,77,77,77,77,77,77,77,77,77,77,77,77,77,77,77,78,0,76,77,78,0,0,0,0,0,0,0,0,0,0,0,0,
77,77,77,77,77,77,77,77,77,39,117,117,117,117,117,117,118,0,76,77,78,0,0,0,0,0,0,0,0,0,0,0,0,
77,77,77,77,77,77,77,77,77,78,0,0,0,0,0,36,37,37,80,77,78,0,0,0,0,0,0,0,0,0,0,0,0,
77,77,77,77,77,77,77,77,77,78,0,0,36,37,37,80,77,77,77,77,78,0,0,0,0,0,0,0,0,0,0,0,0,
77,77,77,77,39,117,117,117,117,118,0,0,76,77,77,77,77,77,77,77,78,0,0,0,0,0,0,0,0,0,0,0,0,
39,117,117,117,118,0,0,0,0,0,0,0,116,117,117,117,117,117,117,117,118,0,0,0,0,0,0,0,0,0,0,0,0,
118,0,0,0,0,0,0,0,0,0,0,0,0,0,0,0,0,0,0,0,0,0,0,0,0,0,0,0,0,0,0,0,0
</data>
 </layer>
 <layer id="9" name="Ground3" width="33" height="33">
  <data encoding="csv">
0,0,0,0,0,0,0,0,0,0,0,0,71,72,72,72,72,72,72,72,72,72,72,72,73,0,0,0,0,0,0,0,0,
0,0,0,0,0,0,0,0,0,0,0,0,71,72,72,72,72,72,72,72,72,72,72,72,73,0,0,0,0,0,0,0,0,
0,0,0,0,0,0,0,0,0,0,0,0,71,72,72,72,72,72,72,72,72,72,72,72,73,0,0,0,0,0,0,0,0,
0,0,0,0,0,0,0,0,0,0,0,0,71,72,72,72,72,72,72,72,72,72,72,72,73,0,0,0,0,0,0,0,0,
0,0,0,0,0,0,0,0,0,0,0,0,71,72,72,72,72,72,72,72,72,72,72,72,73,0,0,0,0,0,0,0,0,
0,0,0,0,0,0,0,0,0,0,0,0,71,72,72,72,72,72,72,72,72,72,72,72,73,0,0,0,0,0,0,0,0,
0,0,0,0,0,0,0,0,0,0,0,0,71,72,72,72,72,72,72,72,72,72,72,72,73,0,0,0,0,0,0,0,0,
0,0,0,0,0,0,0,0,0,0,0,0,71,72,72,72,72,72,72,72,72,72,72,72,73,0,0,0,0,0,0,0,0,
0,0,0,0,0,0,0,0,0,0,0,0,71,72,72,72,72,72,72,72,72,72,72,72,73,0,0,0,0,0,0,0,0,
0,0,0,0,0,0,0,0,0,0,0,0,71,72,72,72,72,72,72,72,72,72,72,72,73,0,0,0,0,0,0,0,0,
0,0,0,0,0,0,0,0,0,0,0,0,71,72,72,72,72,72,72,72,72,72,72,72,73,0,0,0,0,0,0,0,0,
0,0,0,0,0,0,0,0,0,0,0,0,71,72,72,72,72,72,72,72,72,72,34,112,113,0,0,0,0,0,0,0,0,
0,0,0,0,0,0,0,0,0,0,0,0,71,72,72,72,72,72,34,112,35,72,73,0,0,0,0,0,0,0,0,0,0,
0,0,0,0,0,0,0,0,0,0,0,0,71,72,72,72,72,72,73,0,71,72,73,31,32,32,32,32,32,32,32,32,33,
0,0,0,0,0,0,0,0,0,0,0,0,71,72,72,72,72,72,73,31,75,72,74,75,72,72,72,72,72,72,72,72,74,
0,0,0,0,0,0,0,0,0,0,0,0,71,72,72,72,72,72,73,71,72,72,72,72,72,34,112,112,112,112,112,112,112,
0,0,0,0,0,0,0,0,0,0,0,0,71,72,72,72,72,72,74,114,112,35,72,34,112,113,0,0,0,0,0,0,0,
0,0,0,0,0,0,0,0,0,0,0,31,75,72,72,72,72,72,72,73,0,111,112,113,0,0,0,0,0,0,0,0,0,
0,0,0,0,0,0,0,0,0,31,32,75,72,72,72,72,72,72,72,73,0,0,0,0,0,0,0,0,0,0,0,0,0,
0,0,0,0,0,0,0,0,31,75,72,72,72,72,72,72,72,72,72,74,33,0,0,0,0,0,0,0,0,0,0,0,0,
0,0,0,0,0,0,0,0,71,72,72,72,34,112,112,112,112,35,72,72,73,0,0,0,0,0,0,0,0,0,0,0,0,
0,0,0,0,0,0,0,31,75,72,72,72,73,0,31,32,33,111,35,72,73,0,0,0,0,0,0,0,0,0,0,0,0,
0,0,0,0,0,31,32,75,72,72,72,72,73,0,71,72,73,0,71,72,73,0,0,0,0,0,0,0,0,0,0,0,0,
0,0,0,0,0,71,72,72,72,72,72,72,73,0,111,35,73,0,71,72,73,0,0,0,0,0,0,0,0,0,0,0,0,
0,0,0,31,32,75,72,72,72,72,72,72,74,32,32,75,73,0,71,72,73,0,0,0,0,0,0,0,0,0,0,0,0,
0,0,0,71,72,72,72,72,72,72,72,72,72,72,72,72,73,0,71,72,73,0,0,0,0,0,0,0,0,0,0,0,0,
0,0,0,71,72,72,72,72,72,72,72,72,72,72,72,72,73,0,71,72,73,0,0,0,0,0,0,0,0,0,0,0,0,
0,0,0,71,72,72,72,72,72,34,112,112,112,112,112,112,113,0,71,72,73,0,0,0,0,0,0,0,0,0,0,0,0,
0,0,0,71,72,72,72,72,72,73,0,0,0,0,0,31,32,32,75,72,73,0,0,0,0,0,0,0,0,0,0,0,0,
0,0,0,71,72,72,72,72,72,73,0,0,31,32,32,75,72,72,72,72,73,0,0,0,0,0,0,0,0,0,0,0,0,
0,0,0,111,112,112,112,112,112,113,0,0,71,72,72,72,72,72,72,72,73,0,0,0,0,0,0,0,0,0,0,0,0,
0,0,0,0,0,0,0,0,0,0,0,0,111,112,112,112,112,112,112,112,113,0,0,0,0,0,0,0,0,0,0,0,0,
0,0,0,0,0,0,0,0,0,0,0,0,0,0,0,0,0,0,0,0,0,0,0,0,0,0,0,0,0,0,0,0,0
</data>
 </layer>
 <layer id="7" name="Ground4" width="33" height="33">
  <data encoding="csv">
0,0,0,0,0,0,0,0,0,0,0,0,0,0,0,0,46,47,47,47,48,0,0,0,0,0,0,0,0,0,0,0,0,
0,0,0,0,0,0,0,0,0,0,0,0,0,0,0,0,46,47,47,47,48,0,0,0,0,0,0,0,0,0,0,0,0,
0,0,0,0,0,0,0,0,0,0,0,0,0,0,0,0,46,47,47,47,48,0,0,0,0,0,0,0,0,0,0,0,0,
0,0,0,0,0,0,0,0,0,0,0,0,0,0,0,0,46,47,47,47,48,0,0,0,0,0,0,0,0,0,0,0,0,
0,0,0,0,0,0,0,0,0,0,0,0,0,0,0,0,46,47,47,47,48,0,0,0,0,0,0,0,0,0,0,0,0,
0,0,0,0,0,0,0,0,0,0,0,0,0,0,0,0,46,47,47,47,48,0,0,0,0,0,0,0,0,0,0,0,0,
0,0,0,0,0,0,0,0,0,0,0,0,0,0,0,0,46,47,47,47,48,0,0,0,0,0,0,0,0,0,0,0,0,
0,0,0,0,0,0,0,0,0,0,0,0,0,0,0,0,46,47,47,47,48,0,0,0,0,0,0,0,0,0,0,0,0,
0,0,0,0,0,0,0,0,0,0,0,0,0,0,0,0,49,47,47,47,50,0,0,0,0,0,0,0,0,0,0,0,0,
0,0,0,0,0,0,0,0,0,0,0,0,0,0,0,0,49,47,47,47,50,0,0,0,0,0,0,0,0,0,0,0,0,
0,0,0,0,0,0,0,0,0,0,0,0,0,0,0,0,46,47,47,47,48,0,0,0,0,0,0,0,0,0,0,0,0,
0,0,0,0,0,0,0,0,0,0,0,0,0,0,0,0,86,87,87,87,88,0,0,0,0,0,0,0,0,0,0,0,0,
0,0,0,0,0,0,0,0,0,0,0,0,0,0,0,0,0,0,0,0,0,0,0,0,0,0,0,0,0,0,0,0,0,
0,0,0,0,0,0,0,0,0,0,0,0,0,0,0,0,0,0,0,0,0,0,0,0,0,0,0,0,0,0,0,0,0,
0,0,0,0,0,0,0,0,0,0,0,0,0,0,0,0,0,0,0,0,0,0,0,0,0,0,0,0,0,0,0,0,0,
0,0,0,0,0,0,0,0,0,0,0,0,0,0,0,0,0,0,0,0,0,0,0,0,0,0,0,0,0,0,0,0,0,
0,0,0,0,0,0,0,0,0,0,0,0,0,0,0,0,0,0,0,0,0,0,0,0,0,0,0,0,0,0,0,0,0,
0,0,0,0,0,0,0,0,0,0,0,0,0,0,0,0,0,0,0,0,0,0,0,0,0,0,0,0,0,0,0,0,0,
0,0,0,0,0,0,0,0,0,0,0,0,0,0,0,0,0,0,0,0,0,0,0,0,0,0,0,0,0,0,0,0,0,
0,0,0,0,0,0,0,0,0,0,0,0,0,0,0,0,0,0,0,0,0,0,0,0,0,0,0,0,0,0,0,0,0,
0,0,0,0,0,0,0,0,0,0,0,0,0,0,0,0,0,0,0,0,0,0,0,0,0,0,0,0,0,0,0,0,0,
0,0,0,0,0,0,0,0,0,0,0,0,0,0,0,0,0,0,0,0,0,0,0,0,0,0,0,0,0,0,0,0,0,
0,0,0,0,0,0,0,0,0,0,0,0,0,0,0,0,0,0,0,0,0,0,0,0,0,0,0,0,0,0,0,0,0,
0,0,0,0,0,0,0,0,0,0,0,0,0,0,0,0,0,0,0,0,0,0,0,0,0,0,0,0,0,0,0,0,0,
0,0,0,0,0,0,0,0,0,0,0,0,0,0,0,0,0,0,0,0,0,0,0,0,0,0,0,0,0,0,0,0,0,
0,0,0,0,0,0,0,0,0,0,0,0,0,0,0,0,0,0,0,0,0,0,0,0,0,0,0,0,0,0,0,0,0,
0,0,0,0,0,0,0,0,0,0,0,0,0,0,0,0,0,0,0,0,0,0,0,0,0,0,0,0,0,0,0,0,0,
0,0,0,0,0,0,0,0,0,0,0,0,0,0,0,0,0,0,0,0,0,0,0,0,0,0,0,0,0,0,0,0,0,
0,0,0,0,0,0,0,0,0,0,0,0,0,0,0,0,0,0,0,0,0,0,0,0,0,0,0,0,0,0,0,0,0,
0,0,0,0,0,0,0,0,0,0,0,0,0,0,0,0,0,0,0,0,0,0,0,0,0,0,0,0,0,0,0,0,0,
0,0,0,0,0,0,0,0,0,0,0,0,0,0,0,0,0,0,0,0,0,0,0,0,0,0,0,0,0,0,0,0,0,
0,0,0,0,0,0,0,0,0,0,0,0,0,0,0,0,0,0,0,0,0,0,0,0,0,0,0,0,0,0,0,0,0,
0,0,0,0,0,0,0,0,0,0,0,0,0,0,0,0,0,0,0,0,0,0,0,0,0,0,0,0,0,0,0,0,0
</data>
 </layer>
 <layer id="4" name="Ground5" width="33" height="33">
  <data encoding="csv">
0,0,0,0,0,0,0,0,0,0,0,0,0,0,0,152,0,0,0,0,0,152,0,0,0,0,0,0,0,153,0,0,0,
0,0,0,0,0,0,126,0,0,0,0,0,0,0,0,152,0,0,0,0,0,152,0,0,0,0,153,0,0,126,126,0,0,
0,0,0,0,0,0,0,0,0,0,0,0,0,125,0,152,0,0,0,0,0,152,0,125,0,0,0,0,0,126,0,0,0,
0,0,0,0,0,0,0,126,126,0,0,0,0,0,0,152,0,0,0,0,0,152,0,0,0,0,0,0,0,0,0,0,0,
0,0,0,0,0,0,0,0,0,0,0,0,0,0,0,152,0,0,0,0,0,152,0,0,0,0,0,0,0,0,0,0,0,
0,0,0,0,0,0,0,0,0,0,0,0,0,0,0,152,0,0,0,0,0,152,0,0,0,0,0,126,153,0,0,0,0,
0,0,0,0,0,126,0,0,0,0,0,0,0,0,125,152,0,0,0,0,0,152,0,0,0,0,0,0,126,0,0,126,0,
0,0,0,0,0,0,0,0,0,0,126,126,0,0,0,152,0,0,0,0,0,152,0,0,0,0,0,0,0,0,0,126,0,
0,0,0,0,0,0,0,0,0,0,0,0,0,0,0,0,0,0,0,0,0,0,125,0,0,0,0,0,0,0,0,0,0,
0,0,0,0,0,0,0,0,126,0,0,0,0,0,125,0,0,0,0,0,0,0,0,0,0,0,0,126,0,0,0,0,0,
0,0,0,0,0,0,0,0,0,0,0,0,0,125,0,0,0,0,0,0,0,125,0,0,0,0,0,0,153,0,0,0,0,
0,0,0,0,0,126,0,0,0,0,0,0,0,0,0,0,0,0,0,0,0,0,0,0,0,0,126,0,126,0,0,0,0,
0,0,0,0,0,0,0,0,0,0,0,0,0,0,0,0,125,0,0,0,0,125,0,0,0,0,0,0,0,0,0,0,0,
0,0,0,0,0,0,0,0,0,0,0,0,0,0,125,0,0,0,0,0,0,0,0,0,0,0,0,0,0,0,0,0,0,
0,0,0,0,0,0,0,0,0,0,0,0,0,0,0,0,0,0,0,0,0,125,0,0,0,0,125,0,0,0,0,0,0,
0,0,0,0,0,0,0,0,0,0,0,0,0,125,0,125,0,0,0,0,0,0,0,0,0,0,0,0,0,0,0,0,0,
0,0,0,0,0,0,0,0,0,0,0,0,0,0,0,0,0,0,0,0,0,0,0,0,0,0,0,0,0,0,0,0,0,
0,0,0,0,0,0,0,0,0,0,0,0,0,0,0,0,0,0,0,0,0,0,0,0,0,0,0,0,0,0,0,0,0,
0,0,0,153,0,0,0,0,0,0,0,0,0,0,0,0,125,0,0,0,0,0,0,0,0,0,0,0,0,0,0,0,0,
0,0,153,153,0,0,126,0,0,0,0,0,0,125,0,0,0,0,125,0,0,0,0,0,0,0,0,0,0,0,0,0,0,
0,0,0,0,0,0,0,0,0,0,0,0,0,0,0,0,0,0,0,0,0,0,0,0,0,0,0,0,0,0,0,0,0,
0,0,0,0,0,0,0,0,0,0,152,0,0,0,0,0,0,0,0,0,0,0,0,0,0,0,0,0,0,0,0,0,0,
0,126,0,0,0,0,0,0,0,0,0,0,0,0,0,125,0,0,0,0,0,0,0,0,0,0,0,0,0,0,0,0,0,
0,0,0,0,126,0,0,0,0,0,0,0,0,0,0,0,0,0,0,125,0,0,0,0,0,0,0,0,0,0,0,0,0,
0,0,0,0,0,0,0,0,0,125,0,0,0,0,0,0,0,0,0,0,0,0,0,0,0,0,0,0,0,0,0,0,0,
0,0,0,0,0,0,0,0,0,0,0,0,0,0,0,0,0,0,0,0,0,0,0,0,0,0,0,0,0,0,0,0,0,
0,0,0,0,0,0,125,0,0,0,0,0,0,0,0,0,0,0,0,0,0,0,0,0,0,0,0,0,0,0,0,0,0,
0,0,0,0,0,0,0,0,0,0,0,0,0,0,0,0,0,0,0,0,0,0,0,0,0,0,0,0,0,0,0,0,0,
0,153,0,0,0,0,0,152,0,0,0,0,0,0,0,0,0,0,0,125,0,0,0,0,0,0,0,0,0,0,0,0,0,
0,0,0,0,0,0,0,0,0,0,0,0,0,0,0,0,0,0,0,0,0,0,0,0,0,0,0,0,0,0,0,0,0,
0,0,0,0,0,0,0,0,0,0,0,0,0,0,0,0,0,125,0,0,0,0,0,0,0,0,0,0,0,0,0,0,0,
0,0,0,0,0,0,0,0,0,0,0,0,0,0,0,0,0,0,0,0,0,0,0,0,0,0,0,0,0,0,0,0,0,
0,0,0,0,0,0,0,0,0,0,0,0,0,0,0,0,0,0,0,0,0,0,0,0,0,0,0,0,0,0,0,0,0
</data>
 </layer>
 <objectgroup id="3" name="Primary_Entities">
  <object id="1" x="484.833" y="228.833" width="6.36364" height="6.54545">
   <properties>
    <property name="name" value="enemy"/>
   </properties>
  </object>
  <object id="15" x="309.068" y="6.35227" width="6.36364" height="6.54545">
   <properties>
    <property name="name" value="ally"/>
    <property name="priorityLevel" type="int" value="1"/>
   </properties>
  </object>
  <object id="16" x="227.318" y="355.727" width="6.36364" height="6.54545">
   <properties>
    <property name="name" value="enemy"/>
   </properties>
  </object>
  <object id="17" x="33.3182" y="290.227" width="6.36364" height="6.54545">
   <properties>
    <property name="name" value="enemy"/>
   </properties>
  </object>
  <object id="18" x="466.818" y="164.227" width="6.36364" height="6.54545">
   <properties>
    <property name="name" value="enemy"/>
   </properties>
  </object>
  <object id="20" x="277.318" y="3.22727" width="6.36364" height="6.54545">
   <properties>
    <property name="name" value="ally"/>
    <property name="priorityLevel" type="int" value="1"/>
   </properties>
  </object>
  <object id="21" x="355.485" y="4.06061" width="6.36364" height="6.54545">
   <properties>
    <property name="name" value="enemy"/>
   </properties>
  </object>
  <object id="22" x="227.485" y="5.39394" width="6.36364" height="6.54545">
   <properties>
    <property name="name" value="enemy"/>
   </properties>
  </object>
  <object id="23" x="229.818" y="21.0606" width="6.36364" height="6.54545">
   <properties>
    <property name="name" value="enemy"/>
   </properties>
  </object>
  <object id="24" x="356.818" y="18.7273" width="6.36364" height="6.54545">
   <properties>
    <property name="name" value="enemy"/>
   </properties>
  </object>
  <object id="25" x="117" y="389.576" width="6.36364" height="6.54545">
   <properties>
    <property name="name" value="enemy"/>
   </properties>
  </object>
  <object id="26" x="294.818" y="18.2273" width="6.36364" height="6.54545">
   <properties>
    <property name="name" value="ally"/>
    <property name="priorityLevel" type="int" value="0"/>
   </properties>
  </object>
 </objectgroup>
 <objectgroup id="5" name="Portals">
  <properties>
   <property name="destFile" value="start2.tmx"/>
  </properties>
  <object id="14" x="213.667" y="485.833" width="4.75" height="5">
   <properties>
    <property name="destMap" value="start"/>
    <property name="destPortal_ID" type="int" value="1"/>
    <property name="name" value="purplePortal"/>
    <property name="portal_ID" type="int" value="1"/>
    <property name="spawnDirection" value="right"/>
   </properties>
  </object>
 </objectgroup>
</map>
