<?xml version="1.0" encoding="UTF-8"?>
<map version="1.10" tiledversion="1.11.2" orientation="orthogonal" renderorder="right-down" width="22" height="20" tilewidth="16" tileheight="16" infinite="0" nextlayerid="6" nextobjectid="15">
 <properties>
  <property name="battleMap" type="bool" value="true"/>
 </properties>
 <tileset firstgid="1" source="Ground.tsx"/>
 <tileset firstgid="121" source="objects.tsx"/>
 <layer id="2" name="Ground" width="22" height="20">
  <data encoding="csv">
0,0,0,0,0,0,42,42,42,0,0,0,42,42,42,0,0,0,0,0,0,0,
0,0,0,0,0,0,42,42,42,0,0,0,42,42,42,0,0,0,0,0,0,0,
0,0,0,0,0,0,42,42,42,0,0,0,42,42,42,0,0,0,0,0,0,0,
0,0,0,0,0,0,42,42,42,0,0,0,42,42,42,0,0,0,0,0,0,0,
0,0,0,0,0,0,42,42,42,42,42,42,42,42,42,0,0,0,0,0,0,0,
0,0,0,0,0,0,42,42,42,42,42,42,42,42,42,0,0,0,0,0,0,0,
0,0,0,0,0,0,42,42,42,42,42,42,42,42,42,0,0,0,0,0,0,0,
0,0,0,0,0,0,42,42,42,42,42,42,42,42,42,0,0,0,0,0,0,0,
0,0,0,0,0,0,0,0,0,42,42,42,0,0,0,0,0,0,0,0,0,0,
0,0,0,0,0,0,0,0,0,42,42,42,0,0,0,0,0,0,0,0,0,0,
0,0,0,0,0,0,0,0,0,42,42,42,0,0,0,0,0,0,0,0,0,0,
0,0,0,0,0,0,0,0,0,42,42,42,0,0,0,0,0,0,0,0,0,0,
0,0,0,0,0,0,0,0,0,42,42,42,0,0,0,0,0,0,0,0,0,0,
0,0,0,0,0,0,0,0,0,42,42,42,0,0,0,0,0,0,0,0,0,0,
0,0,0,0,0,0,0,0,0,42,42,42,0,0,0,0,0,0,0,0,0,0,
0,0,0,0,0,0,0,0,0,42,42,42,0,0,0,0,0,0,0,0,0,0,
0,0,0,0,0,0,0,0,0,42,42,42,0,0,0,0,0,0,0,0,0,0,
0,0,0,0,0,0,0,0,0,42,42,42,0,0,0,0,0,0,0,0,0,0,
0,0,0,0,0,0,0,0,0,42,42,42,0,0,0,0,0,0,0,0,0,0,
0,0,0,0,0,0,0,0,0,42,42,42,0,0,0,0,0,0,0,0,0,0
</data>
 </layer>
 <layer id="1" name="Ground2" width="22" height="20">
  <data encoding="csv">
72,72,72,72,72,72,73,0,71,72,72,72,73,0,71,72,72,72,72,72,72,72,
72,72,72,72,72,72,73,0,71,72,72,72,73,0,71,72,72,72,72,72,72,72,
72,72,72,72,72,72,73,0,71,72,72,72,73,0,71,72,72,72,72,72,72,72,
72,72,72,72,72,72,73,0,71,72,72,72,73,0,71,72,72,72,72,72,72,72,
72,72,72,72,72,72,73,0,111,112,112,112,113,0,71,72,72,72,72,72,72,72,
72,72,72,72,72,72,73,0,0,0,0,0,0,0,71,72,72,72,72,72,72,72,
72,72,72,72,72,72,73,0,0,0,0,0,0,0,71,72,72,72,72,72,72,72,
72,72,72,72,72,72,74,32,32,33,0,31,32,32,75,72,72,72,72,72,72,72,
72,72,72,72,72,72,72,72,72,73,0,71,72,72,72,72,72,72,72,72,72,72,
72,72,72,72,72,72,72,72,72,73,0,71,72,72,72,72,72,72,72,72,72,72,
72,72,72,72,72,72,72,72,72,73,0,71,72,72,72,72,72,72,72,72,72,72,
72,72,72,72,72,72,72,72,72,73,0,71,72,72,72,72,72,72,72,72,72,72,
72,72,72,72,72,72,72,72,72,73,0,71,72,72,72,72,72,72,72,72,72,72,
72,72,72,72,72,72,72,72,72,73,0,71,72,72,72,72,72,72,72,72,72,72,
72,72,72,72,72,72,72,72,72,73,0,71,72,72,72,72,72,72,72,72,72,72,
72,72,72,72,72,72,72,72,72,73,0,71,72,72,72,72,72,72,72,72,72,72,
72,72,72,72,72,72,72,72,72,73,0,71,72,72,72,72,72,72,72,72,72,72,
72,72,72,72,72,72,72,72,72,73,0,71,72,72,72,72,72,72,72,72,72,72,
72,72,72,72,72,72,72,72,72,73,0,71,72,72,72,72,72,72,72,72,72,72,
72,72,72,72,72,72,72,72,72,73,0,71,72,72,72,72,72,72,72,72,72,72
</data>
 </layer>
 <layer id="4" name="Ground3" width="22" height="20">
  <data encoding="csv">
0,0,0,0,0,0,0,0,0,0,0,0,0,0,0,0,0,0,0,0,0,0,
0,0,0,0,0,0,0,0,0,0,0,0,0,0,0,0,0,0,0,0,0,0,
0,0,0,0,0,0,0,0,0,0,124,0,0,0,0,0,0,0,0,0,124,0,
0,0,124,0,0,0,0,0,0,0,0,0,0,0,0,0,0,0,0,0,0,0,
0,0,0,0,0,0,0,0,0,152,152,152,0,0,0,0,0,0,0,0,0,0,
0,0,0,0,0,0,0,0,0,0,0,0,0,0,0,0,0,0,0,0,0,0,
0,0,124,0,0,0,0,0,0,0,0,0,0,0,0,0,0,124,0,0,0,0,
0,0,0,152,152,152,0,0,0,0,0,0,0,0,0,152,152,124,0,0,0,0,
0,0,0,0,0,0,0,0,0,0,0,0,0,0,0,0,0,0,0,0,0,0,
0,0,0,124,0,0,0,0,0,0,0,0,0,124,0,0,0,0,0,0,0,0,
0,0,0,0,0,0,0,0,0,0,0,0,0,0,0,0,0,0,0,0,0,0,
0,0,0,0,0,0,0,0,0,0,0,0,0,0,0,0,0,0,0,0,0,0,
0,0,0,0,124,0,0,152,0,0,0,0,0,152,0,0,0,0,124,0,0,0,
0,0,124,0,0,0,0,0,0,0,0,0,0,0,0,124,0,0,0,0,0,0,
0,0,0,0,0,0,0,0,0,0,0,0,0,0,0,0,0,0,0,0,0,0,
0,0,0,0,0,0,0,0,0,0,0,0,0,0,0,0,124,0,0,0,0,0,
0,0,0,0,0,0,0,0,0,0,0,0,0,0,0,0,0,0,0,0,124,0,
0,124,0,0,124,0,0,0,0,0,0,0,124,0,0,0,0,0,0,0,0,0,
0,0,0,0,0,124,0,0,0,0,0,0,0,0,0,0,0,0,0,0,0,0,
0,0,0,0,0,0,0,0,0,0,0,0,0,0,0,0,0,124,0,0,0,0
</data>
 </layer>
 <objectgroup id="3" name="Primary_Entities">
  <object id="1" x="116.606" y="212.667" width="6.36364" height="6.54545">
   <properties>
    <property name="name" value="ally"/>
    <property name="priorityLevel" type="int" value="0"/>
   </properties>
  </object>
  <object id="2" x="212.667" y="213.273" width="3.81818" height="4.36364">
   <properties>
    <property name="name" value="ally"/>
    <property name="priorityLevel" type="int" value="0"/>
   </properties>
  </object>
  <object id="3" x="181.212" y="53.5455" width="7" height="6.81818">
   <properties>
    <property name="name" value="enemy"/>
   </properties>
  </object>
  <object id="4" x="164.03" y="52.4545" width="7.72727" height="8">
   <properties>
    <property name="name" value="enemy"/>
   </properties>
  </object>
  <object id="5" x="146.121" y="51.606" width="12.9091" height="9.72727">
   <properties>
    <property name="name" value="enemy"/>
   </properties>
  </object>
 </objectgroup>
 <objectgroup id="5" name="Portals">
  <properties>
   <property name="destFile" value="start2.tmx"/>
  </properties>
  <object id="8" x="211.908" y="3.81787" width="8.5" height="8.25">
   <properties>
    <property name="destMap" value="tunnel"/>
    <property name="destPortal_ID" type="int" value="2"/>
    <property name="name" value="orangePortal"/>
    <property name="portal_ID" type="int" value="2"/>
    <property name="spawnDirection" value="down"/>
   </properties>
  </object>
  <object id="13" x="118.012" y="5.06387" width="3.875" height="4.25">
   <properties>
    <property name="destMap" value="exemple"/>
    <property name="destPortal_ID" type="int" value="1"/>
    <property name="name" value="purplePortal"/>
    <property name="portal_ID" type="int" value="1"/>
    <property name="spawnDirection" value="down"/>
   </properties>
  </object>
 </objectgroup>
</map>
