<?xml version="1.0" encoding="UTF-8"?>
<map version="1.10" tiledversion="1.11.2" orientation="orthogonal" renderorder="right-down" width="8" height="8" tilewidth="16" tileheight="16" infinite="0" nextlayerid="2" nextobjectid="1">
 <tileset firstgid="1" source="../entities_anims/ally.tsx"/>
 <tileset firstgid="65" source="misc.tsx"/>
 <tileset firstgid="129" source="newmisc.tsx"/>
 <layer id="1" name="Calque de Tuiles 1" width="8" height="8">
  <data encoding="csv">
0,0,0,0,0,0,0,0,
0,0,0,0,0,0,0,0,
0,0,0,0,0,0,0,0,
0,0,0,0,0,0,0,0,
0,0,0,0,0,0,0,0,
0,0,0,0,0,0,0,0,
0,0,0,0,0,0,0,0,
129,130,0,0,0,0,0,0
</data>
 </layer>
</map>
