<?xml version="1.0" encoding="UTF-8"?>
<map version="1.10" tiledversion="1.11.2" orientation="orthogonal" renderorder="right-down" width="8" height="5" tilewidth="16" tileheight="16" infinite="0" nextlayerid="4" nextobjectid="42">
 <tileset firstgid="1" source="LESAUTRESOLS.tsx"/>
 <layer id="1" name="Calque de Tuiles 1" width="8" height="5">
  <data encoding="csv">
34,34,34,34,34,34,34,34,
34,34,34,34,34,34,34,34,
34,34,34,34,34,0,34,0,
34,34,34,34,34,3221225506,34,0,
34,34,34,34,34,0,34,0
</data>
 </layer>
 <objectgroup id="2" name="Monstres" class="Monstre"/>
 <objectgroup id="3" name="Calque d'Objets 2"/>
</map>
