<?xml version="1.0" encoding="UTF-8" standalone="no"?><map height="8" infinite="0" nextlayerid="3" nextobjectid="1" orientation="orthogonal" renderorder="right-down" tiledversion="1.11.2" tileheight="16" tilewidth="16" version="1.10" width="8">
 <properties><property name="atlas" value="tileset/character1.atlas"/>
  <property name="type" value="character"/>
 </properties>
 <tileset columns="8" firstgid="1" name="chara1" tilecount="64" tileheight="16" tilewidth="16">
  <image height="128" source="../spritesheets/tileset_1bit.png" width="128"/>
  <tile id="0">
   <properties>
    <property name="animName" value="idle"/>
    <property name="fps" type="float" value="4"/>
    <property name="playMode" value="PINGPONG"/>
   </properties>
  </tile>
  <tile id="44">
   <properties>
    <property name="decreaseFactor" type="float" value="0.15"/>
    <property name="type" value="sender"/>
   </properties>
  </tile>
  <tile id="45">
   <properties>
    <property name="animName" value="walk"/>
    <property name="fps" type="int" value="6"/>
    <property name="playMode" value="LOOP"/>
   </properties>
  </tile>
  <tile id="57">
   <properties>
    <property name="type" value="attackDamage"/>
   </properties>
  </tile>
 </tileset>
 <layer height="8" id="1" name="Calque de Tuiles 1" width="8">
  <data encoding="csv">
0,0,0,0,0,0,0,0,
0,0,0,0,0,0,0,0,
0,0,0,0,0,0,0,0,
0,0,0,0,0,0,0,0,
0,0,0,0,0,0,0,0,
0,0,0,0,0,0,0,0,
46,47,0,0,0,0,0,0,
1,2,3,0,0,0,0,0
</data>
 </layer>
</map>