<?xml version="1.0" encoding="UTF-8"?>
<map version="1.10" tiledversion="1.11.2" orientation="orthogonal" renderorder="right-down" width="8" height="8" tilewidth="16" tileheight="16" infinite="0" nextlayerid="2" nextobjectid="1">
 <properties>
  <property name="attackType" value="generic"/>
  <property name="power" type="int" value="5"/>
 </properties>
 <tileset firstgid="1" source="attack.tsx"/>
 <layer id="1" name="Calque de Tuiles 1" width="8" height="8">
  <data encoding="csv">
58,58,58,58,58,58,58,0,
58,58,58,64,58,58,58,0,
58,58,60,58,60,58,58,0,
58,64,58,45,58,64,58,0,
58,58,60,58,60,58,58,0,
58,58,58,64,58,58,58,0,
58,58,58,58,58,58,58,0,
58,58,58,58,58,58,58,0
</data>
 </layer>
</map>
